public/assets/icons/filter.svg

<svg width="24" height="24" viewBox="0 0 24 24" fill="none" xmlns="http://www.w3.org/2000/svg">
<path fill-rule="evenodd" clip-rule="evenodd" d="M8.87774 6.37856C8.87774 8.24523 7.33886 9.75821 5.43887 9.75821C3.53999 9.75821 2 8.24523 2 6.37856C2 4.51298 3.53999 3 5.43887 3C7.33886 3 8.87774 4.51298 8.87774 6.37856ZM20.4933 4.89833C21.3244 4.89833 22 5.56203 22 6.37856C22 7.19618 21.3244 7.85989 20.4933 7.85989H13.9178C13.0856 7.85989 12.4101 7.19618 12.4101 6.37856C12.4101 5.56203 13.0856 4.89833 13.9178 4.89833H20.4933ZM3.50777 15.958H10.0833C10.9155 15.958 11.5911 16.6217 11.5911 17.4393C11.5911 18.2558 10.9155 18.9206 10.0833 18.9206H3.50777C2.67555 18.9206 2 18.2558 2 17.4393C2 16.6217 2.67555 15.958 3.50777 15.958ZM18.5611 20.7778C20.4611 20.7778 22 19.2648 22 17.3992C22 15.5325 20.4611 14.0196 18.5611 14.0196C16.6623 14.0196 15.1223 15.5325 15.1223 17.3992C15.1223 19.2648 16.6623 20.7778 18.5611 20.7778Z" fill="#7986AC"/>
</svg>

<?xml version="1.0"?>
<svg width="24" height="24" xmlns="http://www.w3.org/2000/svg" xmlns:svg="http://www.w3.org/2000/svg">
 <g class="layer">
  <title>Layer 1</title>
  <path clip-rule="evenodd" d="m8.88,6.38c0,1.87 -1.54,3.38 -3.44,3.38c-1.9,0 -3.44,-1.51 -3.44,-3.38c0,-1.87 1.54,-3.38 3.44,-3.38c1.9,0 3.44,1.51 3.44,3.38zm11.61,-1.48c0.83,0 1.51,0.66 1.51,1.48c0,0.82 -0.68,1.48 -1.51,1.48l-6.57,0c-0.83,0 -1.51,-0.66 -1.51,-1.48c0,-0.82 0.68,-1.48 1.51,-1.48l6.57,0zm-16.98,11.06l6.57,0c0.84,0 1.51,0.66 1.51,1.48c0,0.82 -0.67,1.48 -1.51,1.48l-6.57,0c-0.83,0 -1.51,-0.66 -1.51,-1.48c0,-0.82 0.68,-1.48 1.51,-1.48zm15.05,4.82c1.9,0 3.44,-1.52 3.44,-3.38c0,-1.87 -1.54,-3.38 -3.44,-3.38c-1.9,0 -3.44,1.51 -3.44,3.38c0,1.86 1.54,3.38 3.44,3.38z" fill="#000000" fill-rule="evenodd" id="svg_1"/>
 </g>
</svg>
